assets/sonr-icons/sol-fill.svg

<svg xmlns="http://www.w3.org/2000/svg" width="24" height="24" fill="none"><path fill="currentColor" d="M12 22c5.523 0 10-4.477 10-10S17.523 2 12 2 2 6.477 2 12s4.477 10 10 10M6.937 6.143A.5.5 0 0 1 7.284 6h11.97c.219 0 .328.264.173.418l-2.365 2.365a.5.5 0 0 1-.347.143H4.745a.244.244 0 0 1-.173-.418zm.001 8.828a.5.5 0 0 1 .347-.143h11.97c.219 0 .328.264.173.418l-2.365 2.365a.5.5 0 0 1-.347.143H4.746a.244.244 0 0 1-.173-.418zm9.778-4.585c.132 0 .256.053.347.143l2.365 2.365a.245.245 0 0 1-.173.418H7.285a.5.5 0 0 1-.347-.143l-2.365-2.365a.245.245 0 0 1 .173-.418z"/></svg>

<svg xmlns="http://www.w3.org/2000/svg" width="24" height="24" fill="none" viewBox="0 0 24 24"><path fill="#000" d="M12 22C17.523 22 22 17.523 22 12C22 6.477 17.523 2 12 2C6.477 2 2 6.477 2 12C2 17.523 6.477 22 12 22ZM6.937 6.143C7.032 6.052 7.156 6 7.284 6H19.254C19.473 6 19.582 6.264 19.427 6.418L17.062 8.783C16.971 8.874 16.847 8.926 16.715 8.926H4.745C4.526 8.926 4.417 8.662 4.572 8.508L6.937 6.143ZM6.938 14.971C7.029 14.88 7.153 14.828 7.285 14.828H19.255C19.474 14.828 19.583 15.092 19.428 15.246L17.063 17.611C16.972 17.702 16.848 17.754 16.716 17.754H4.746C4.527 17.754 4.418 17.49 4.573 17.336L6.938 14.971ZM16.716 10.386C16.848 10.386 16.972 10.439 17.063 10.529L19.428 12.894C19.582 13.049 19.473 13.312 19.255 13.312H7.285C7.153 13.312 7.029 13.259 6.938 13.169L4.573 10.804C4.418 10.649 4.528 10.386 4.746 10.386H16.716Z"/></svg>
